X:1
T:Reposons nous
T:Reposons nous
T:Pierre de Manchicourt
C:Pierre de Manchicourt
%%score [ 1 2 [ 3 4 ] ]
L:1/8
Q:1/4=76
M:2/2
K:F
V:1 treble nm="Superius" snm="S"
V:2 treble nm="Altus" snm="A"
V:3 treble-8 nm="Tenor 1" snm="T 1"
V:4 treble-8 nm="Tenor 2" snm="T 2"
V:1
 G2 dd e2 c2 | d2 e2 f2 e2- | ed d4 c2 | d2 z G ddec | de f2 e2 d2- | d2 c2 e2 d2- |"^#" d2 c2 d4 | %7
w: Re- po- sons nous en-|tre nous a- *|* * * mou-|reulx, re- po- sons nous en-|tre nous a- * *||* mou- reulx,|
 f2 ff dddd | B2 c2 A2 GB | BAGB AGFE | F2 G2 A4 | z4 B2 BB | FB A2 GF G2 | A2 G4 F2 | G4 z4 | %15
w: du temps ja- dis, la sai- son|est pas- sé- e, du|temps ja- dis, la sai- son est pas-|sé- * e,|du temps ja-|dis, la sai- son est pas-|sé- * *|e,|
 z2 d2 ddff | ef g4 f2 | g2 d2 z4 | A2 AA ccBc | d2 c2 A2 B2- | B2 A4 G2 | A2 z A F2 B2 | %22
w: et ne fre- quen- trons|plus en la bai-|sé- e,|et ne fre- quen- te- rons plus|en la bai- sé-||e, car les re-|
 AA c2 B2 A2 | z2 d2 c2 d2- | de f4 e2- | e2 d4 c2 | d4 z2 d2 | dd A2 c2 f2- | fe d2 c2 B2- | %29
w: tours, car les re- tours|en sont fort|dan- * * *|* * ge|reulx, fuy-|ons tous- jours ces pas-|* * sai- ges pe-|
 B2 A2 B2 G2 | d4 z4 | z4 d2 dd | cc f2 e d2 c | dBBG A2 FG | A2 A2 G2 B2- | B2 AG F4 | z4 z2 d2 | %37
w: * * * ril-|leux,|et ces fil-|let- tes ca- chant ma- *|ree, et ces fil- let- tes ca-|chant ma- * ré-|* * * e,|a-|
 f2 c2 eegg | f3 e/d/ ef e2- | ed d4 c2 | d4 z4 | G2 B2 F2 AA | cc G2 B2 A2- |"^#" A2 G4 F2 | %44
w: vec gal- lans pour es- tre|plus _ _ _ _ joy-||eulx,|a- vec gal- lans pour|es- tre plus joy- *||
 GG B2 F2 AA | cc G2 B2 A2- | AG G4 F2 | G8 |] %48
w: eulx, a- vec gal- lans pour|es- tre plus joy- *||eulx.|
V:2
 z2 D2 GG A2 | F2 G2 A2 G2 | FE F2 B2 A2 | D2 z2 D2 AA | BGAB c2 B2- | BAGF G4 | A4 F2 FF | D8 | %8
w: Re- po- sons nous|en- tre nous a-|* * * * mou-|reulx, re- po- sons|nous en- tre nous a- *|* * * * mou-|reulx, du temps ja-|dis,|
 z2 F2 FF D2 | F2 ED C2 D2- | D2 B,2 C4 | D4 z4 |"^b" z FFF DFED |"^b" C2 E2 D4 | B,4 z4 | %15
w: du temps ja- dis,|la sai- * son est|_ pas- sé-|e,|du temps ja- dis, la sai- son|est pas- sé-|e,|
 G2 GG BBAB | c2 B4 A2 | G2 z2 D2 DD | F3 F EF G2- | G2 C4 D2 | B,2 C2 B,2 z D | F2 E2 D2 CB, | %22
w: et ne fre- quen- te- rons plus|en la bai-|sée, et ne fre-|quen- te- rons plus en|_ la bai-|sé- * e, car|les re- tours en _|
 C2 C2 D4 | E2 F4 D2 | B2 A3 B c2 | B2 G2 A2 A2 | AA G2 B2 AA | A2 A2 AA F2 | A2 B2 A2 F2- | %29
w: sont fort dan-||* * * ge-|reulx, fuy- ons tous-|jours, fuy- ons tous- jours, fuy-|ons tous- jors ces pas-|sai- * * *|
 FE F2 D2 B2 | BB A2 F2 z2 | G2 GG FF B2 | A2 F2 G2 E2 | DDDE F2 FD |"^b" E2 F2 E2 D2- | %35
w: |ges pe- ril- leux|et ces fil- let- tes ca-|chant ma- ré- *|e, * ces fil- let- tes ca-|chant ma- * *|
 D2 C2 DD F2 | C2 EE G2 G2 | FGAF G3 A | B2 A2 z2 G2 | B2 B2 A2 z G | B2 F2 AAcc | B2 G2 A2 F2 | %42
w: * ré- e, a- vec|gal- lans pour es- tre|plus _ _ _ _ _|joy- eulx, a-|vec gal- lans, a-|vec gal- lans pour es- tre|plus _ _ _|
"^b" E4 D2 F2- |"^b" F2 E2 D2 z A | B2 G2 A2 F2 |"^b""^b" E2 E2 D2 F2- |"^b" F2 E2 D4 | D8 |] %48
w: joy- * *|* * eulx, a-|vec gal- lans pour|es- tre plus joy-||eulx.|
V:3
 z8 | z2 G2 dd e2 | c2 d2 e2 f2- | fe d4 c2 | B2 z4 G2 | dd e2 c2 dd | f2 e2 d4 | z2 f2 ffdf | %8
w: |Re- po- sons nous|en- tre nous a-|* * * mou-|reulx, re-|po- sons nous en- tre nous|a- mou- reulx,|du temps ja- dis, la|
 edcB c2 B2 | d2 B2 z2 B2 | BBGB A2 F2 | f2 ff df e2 | d2 c2 B4 | A2 c2 B2 A2 | G2 d2 dd f2 | %15
w: sai- son est pas- sé- *|* e, la-|sai- son est pas- sé- e,|du temps ja- dis la sai-|son est pas-|sé- * * *|e, et ne fre- quen-|
 e2 d2 z4 | z2 d2 ddff | ef g4 f2 | c2 d2 z2 d2 | ddff ef g2 | d2 f2 e2 d2- | d2 c2 d2 z d | %22
w: te- rons,|et ne fre- quen- trons|plus en la bai-|sé- e, et|ne fre- quen- te- rons plus en|la bai- sé- *|* * e, car|
 f2 e2 d2 z A | c2 B2 A2 G2 | d3 e f2 g2 | f2 d2 e4 | d2 dd B2 f2- | ff f2 e2 d2 | c2 B2 c2 d2 | %29
w: les re- tours, car|les re- tours en|sont _ _ fort|dan- ge- reulx,|fuy- ons tous- jours, fuy-|* ons ces trous, ces|pas- sai- ge per-|
 c4 B4 | z2 d2 ddcc | e2 d4 B2 | c2 d2 G2 A2 | z BBB c2 dB | c2 d2 B3 A | G2 z G B2 F2 | %36
w: ril- leux|et cse fil- let- tes|ca- chant ma-|ré- * * e,|et ces fil- let- tes ca-|chant ma- ré- *|e, a- vec gal-|
 AAcc G2 B2 | A4 G4 | d2 f2 c2 ee | gg d2 f2 e2 | d2 z d f2 c2 |"^b""^b" ee d4 c2 | c2 B3 c d2 | %43
w: lans pour es- tre plus _|joy- eulx,|a- vec gal- lans, pour-|es- tre plus- * joy-|eulx, a- vec gal-|lans pour es- tre|plus- * * *|
 c2 B2 A4 | G2 d2 d2 c2- | c2 B3 c d2 | c2 B2 A4 | G8 |] %48
w: * * joy-|eulx, pour es- tre|_ plus _ _|joy- * *|eulx.|
V:4
 z8 | z4 D2 GG | A2 F2 G2 A2 | B3 A B2 A2 | z Gdd ec d2 | G2 c4 B2 | A4 D4- | D4 B2 BB | %8
w: |Re- po- sons|nous en- tre nous|a- * mou- reulx,|re- po- sons nous en- tre|nous a- *|mou- reulx,|_ du temps ja-|
 GBAG F2 G2 | D2 G2 z4 | z4 F2 FF | D2 B2 BB G2 | B2 F2 GD E2 |"^b" F2 C2 D4 | G2 GG BB F2 | %15
w: dis, la sai- son est pas-|sé- e,|du temps ja-|dis, du temps ja- dis|la sai- son est pas-|sé- * e,|et ne fre- quen- te- rons|
 c2 B3 c d2 | c2 G2 d4 | z2 G2 GGBB | A2 D2 A2 G2 | B2 A4 G2- | G2 F2 G3 F | D2 z A B2 G2 | %22
w: plus en _ la|bai- sé- e,|et ne fre- quen- te-|rons plus en la|bai- sé- *||e, car les re-|
 A4 z D F2 | E2 D2 F2 B2- | Bc d4 c2 | d2 B2 A4 | D2 G2 GG D2 | d2 dd A2 D2 | F2 G2 A2 B2 | %29
w: tours, car les|re- tours en sont|_ _ _ fort|dan- ge- *|reulx, fuy- ons tous- jours,|ces- pas- sai- ges pe-|* * * ril-|
 F4 z2 G2 | GGFF B2 A2 | GFGA B2 G2 | A2 D2 z4 | G2 GG FF B2 | A2 F2 G2 D2 |"^b" E4 D2 z D | %36
w: leux, et|ces fil- let- tes ca- chant|ma- * * * * *|ré- e,|et ces fil- let- tes ca-|chant la ma- *|ré- e, a-|
 F2 C2 EEGG | D2 F2 E4 | D4 A2 c2 | G2 BB dd Ac | B4 A4 | G4 D2 F2 |"^b""^b" C2 EE GG D2 | %43
w: vec gal- lans pour es- tre|plus joy- *|eulx, a- vec|gal- lans pour es- tre plus _|joy- *|eulx, a- vec|gal- lans pour es- tre plus|
"^#" F2 G2 D4 | G4 D2 F2 |"^b""^b" C2 EE GG D2 | F2 G2 D4 | G8 |] %48
w: joy- * *|eulx,- a- vec|gal- lans pour es- tre plus|joy- * *|eulx.|

